X:43
T: BUM BAM BEIER DE KOESTER MAG KIEN EIER
N: K0313
O: Europa, Mitteleuropa, Deutschland, Oldenburg
R: Kinder -, Schaukel -, Knierreiter -, Spiel - Lied
M: 2/4
L: 1/16
K: F
 | c4d4 | c4A2
A2 | c2c2d2d2 | c4A2
A2 | c2c2A4 | c2ccA4 | c2ccA4 |
c2c2d2d2 | c2c2A4

@@@ Tune index: 7380
